X: 16195
T: Green Shades Of Gask, The
R: jig
M: 6/8
K: Gmajor
GAG BGB|gag (f2 e)|dgd BgB|aAA (A2 B)|
GAG BGB|gag (f2 e)|dcB Adc|BGG G2:|
gag gfe|aba agf|gfg aga|bee (e2 f)|
[1 gag gfe|aba agf|gfe dgd|BGG G2:|
[2 gbg ege|ded ug2 ue|dcB Adc|BGG G2||

